X:120
T: O'Donovan's
S: Darley & McCall Collection
Z: B.Black
L: 1/8
M: 4/4
R: reel
K: F
Ac (3ccc cAcd|cfaf gfdf|Accd cAFA|GFGA G4|
Ac (3ccc cAcd|cfaf gfdf|Acfd cAFA|GFGA F4 :|
affa gece|gbag fddf|cf (3fff gf (3fff|cAfd cAGF|
Ac (3ccc cAFA|cAcd c4|f3d cAFA|GFGA F4 :|
w: %blank line
K: D
FA (3AAA AFAB|Adfd edBd|FAAB AFDF|EDEF E4|
FA (3AAA AFAB|Adfd edBd|FAdB AFDF|EDEF D4 :|
fddf ecAc|egfe dBBd|Ad (3ddd ed (3ddd|AFdB AFED|
FA (3AAA AFDF|AFAB A4|d3B AFDF|EDEF D4 :|


